X:1
T: The Lassie of the Glen
C:J. Steel
R:Strathspey
Q: 128
K:D
M:4/4
L:1/16
|:F3A G3B F3A E3G|F3A G3B AF3 E4|F3A G3B F3A E3G|F3A G3B AC3 D4|
F3A G3B F3A E3G|F3A G3B AF3 E4|F3A G3B F3A E3G|FA3 A,D3 CE3 D2G2|
FD3 FA3 BG3 B3d|c3A g3f e3d c3B|A3G F3d BG3 E3g|((3f2g2a2) ((3A2B2c2) ((3d2f2e2) ((3d2c2B2) |
A3a ((3a2g2a2) ((3f2e2d2) ((3c2B2A2) |G3g ((3g2f2g2) ((3e2d2c2) ((3B2A2G2) |F3d ((3d2c2d2) D3A ((3A2^G2A2) |((3B2c2d2) ((3e2f2d2) ((3d2B2A2) ((3G2F2E2) :|
